assets/virtual-reality-color/VirtualRealityColor7.svg

<svg xmlns="http://www.w3.org/2000/svg" data-name="Layer 3" viewBox="0 0 128 128"><path fill="#50b8c9" d="M123.233 44.93a4.28 4.28 0 01-4.28 4.28H12.136a4.28 4.28 0 01-4.28-4.28 4.279 4.279 0 014.28-4.281h106.817a4.279 4.279 0 014.28 4.281z"/><path fill="#c5f3ff" d="M11.065 49.21v15.468a22.671 22.671 0 1045.343 0V49.21zM68.9 49.21v15.468a22.673 22.673 0 0045.346 0V49.21z"/><path fill="#50b8c9" d="M11.065 55.258h30.147a7.538 7.538 0 017.534 7.537 7.536 7.536 0 01-7.534 7.537H11.774z"/><path fill="#000a3a" d="M117.408 39.1H10.592a5.82 5.82 0 00-1.071 11.546v14.032a24.11 24.11 0 00.763 5.925 1.538 1.538 0 00.1.373 24.2 24.2 0 0047.572-6.3v-3.687h9.4v3.689a24.217 24.217 0 1048.435 0V50.754h1.62a5.825 5.825 0 000-11.65zm-76.2 17.7a5.993 5.993 0 010 11.985h-5.932V56.8zm-9.02 11.987H13.017a21.135 21.135 0 01-.408-4.109v-.339h13.335a1.544 1.544 0 000-3.089H12.61V56.8h19.578zm22.676-4.109a21.112 21.112 0 01-40.965 7.2h27.313a9.081 9.081 0 000-18.162H12.61v-2.962h42.254zm3.088-6.778v-7.146h9.4V57.9zm54.748 6.778a21.129 21.129 0 11-42.257 0V50.754H112.7zm4.708-17.012H10.592a2.736 2.736 0 010-5.472h106.816a2.736 2.736 0 010 5.472z"/></svg>

<svg id="Layer_3" data-name="Layer 3" xmlns="http://www.w3.org/2000/svg" viewBox="0 0 128 128"><title>Artboard 103</title><path d="M123.233,44.93a4.28,4.28,0,0,1-4.28,4.28H12.136a4.28,4.28,0,0,1-4.28-4.28h0a4.279,4.279,0,0,1,4.28-4.281H118.953a4.279,4.279,0,0,1,4.28,4.281Z" style="fill:#50b8c9"/><path d="M11.065,49.21V64.678a22.671,22.671,0,1,0,45.343,0V49.21Z" style="fill:#c5f3ff"/><path d="M68.9,49.21V64.678a22.673,22.673,0,0,0,45.346,0V49.21Z" style="fill:#c5f3ff"/><path d="M11.065,55.258H41.212a7.538,7.538,0,0,1,7.534,7.537h0a7.536,7.536,0,0,1-7.534,7.537H11.774Z" style="fill:#50b8c9"/><path d="M117.408,39.1H10.592A5.82,5.82,0,0,0,9.521,50.646V64.678a24.11,24.11,0,0,0,.763,5.925,1.538,1.538,0,0,0,.1.373,24.2,24.2,0,0,0,47.572-6.3V60.989h9.4v3.689a24.217,24.217,0,1,0,48.435,0V50.754h1.62a5.825,5.825,0,0,0,0-11.65Zm-76.2,17.7a5.993,5.993,0,0,1,0,11.985H35.276V56.8ZM32.188,68.787H13.017a21.135,21.135,0,0,1-.408-4.109v-.339H25.944a1.544,1.544,0,0,0,0-3.089H12.61V56.8H32.188Zm22.676-4.109a21.112,21.112,0,0,1-40.965,7.2H41.212a9.081,9.081,0,0,0,0-18.162H12.61V50.754H54.864ZM57.952,57.9V50.754h9.4V57.9ZM112.7,64.678a21.129,21.129,0,1,1-42.257,0V50.754H112.7Zm4.708-17.012H10.592a2.736,2.736,0,0,1,0-5.472H117.408a2.736,2.736,0,0,1,0,5.472Z" style="fill:#000a3a"/></svg>
